X:1
T:Thou God art praised in Sion
%%score [ 1 2 3 4 ]
L:1/8
M:4/4
K:C
V:1 treble nm="Soprano" snm="S"
V:2 alto nm="Alto" snm="A"
V:3 treble-8 nm="Tenor" snm="T"
V:4 bass nm="Bass" snm="B"
V:1
 e4 e4 | e6 d2 | (c3 B c>edc | B2 c2) d2 (ec) | (d2 B2) G2 B2 | (c8 | g4) e2 d2 | e4 e4 | %8
w: ||||||||
 z4 G2 G2 | (c2 B2) c2 d2 | G4 A2 B2 | c4 c4 | z4 e2 d2 | (c2 B2) c2 c2 | c4 c2 B2 | c4 c4 | %16
w: un- to|thee * shall the|Vow be per|form- ed|||||
 e2 d2 c4 | d4 e4 | z8 | z8 | z8 | z8 | z8 | z8 | z4 c2 B2 | c4 d2 c2 | d4 c4 | c4 B4 | c8 | z8 | %30
w: ||||||||||||||
 z8 | z8 | z8 | z8 | z8 | z4 c3 d | (e3 d e2) g2 | c2 z2 z4 | c3 d (e3 d | e2) g2 c2 c2 | %40
w: |||||and the|Clouds * * shall|drop|and the Clouds *|* shall drop shall|
 (B3 c) d4 | e4 e4 | z4 c2 c2 | e2 e2 e2 c2 | (Bc)(de) (dc) d2 | e3 e e2 d2 | c3 c c2 d2 | %47
w: drop * *|fat- ness||||||
 e2 e2 e2 c2 | (Bc)(de) (dc) d2 | e3 d c4 |[M:2/4] z4 | z4 | z4 | ed ce | df eg | g>f ed | c4- | %57
w: ||||||||||
 c4 | cB ce | fd eg | c>d eg | e4 | z2 d>d | e4 | z2 e>d | c4- | c2 c2 | c2 GA/B/ | c2 (ed/c/) | %69
w: |||||||||* re-|joice shall re *|joice shall re *|
 (B2 AG | de f/e/d/c/ | BA/B/ G2) | z2 c>d | (e>f e>d | c/d/e/f/ g)e | (dc) (gf) | e4 | z4 | z4 | %79
w: joi * *||* * * ce||||||||
 z4 | z4 | z4 | z4 | z4 | z4 | z2 e>f | (gf) ed | e2 (dc) | d2 ed | e>d c2 | c2 (Bc) | (d2 dB) | %92
w: ||||||and the|Vall * ies shall|stand so *|thi * *|ck with corn|they shall *|laugh * *|
 c2 z2 | c2 B2 | (A2 Bc/B/ | c2) cB | (A/B/c/d/ e)(e/c/) | (B/c/B/c/ d)c | B4 | z4 | z4 | z4 | z4 | %103
w: |they shall|lau * * *|gh they shall|lau * * * * * *|* * * gh * and|sing|||||
 (d/e/d/c/ B)A | G2 cd | (e/f/e/d/ c/B/A/B/ | c2) BG | c2 dB | (c/B/c/d/ e>d | c)(c/B/) (AG | %110
w: laugh * * * * and|sing they shall|lau * * * * * * *|gh they shall|laugh they shall|lau- * * * * *||
 c2) (gf) | e4 | z4 |[M:4/4] G6 G2 | c4 G4 | (c3 B c3) c | B4 d4 | (c3 d e2) c2 | (d2 B2) G4 | %119
w: gh and *|sing||||||||
 z4 c4 |[M:6/4] (e3 f e4) d4 | (c3 B c4) e4 | d4 c4 [Bg]4 | [ce]12 |] %124
w: |||||
V:2
 G4 G4 | (G3 F E2) A2 | (G3 A G3 F | E4) A2 A2 | G4 G2 G2 | (G6 A2 | G4) G2 G2 | G4 G4 | z8 | z8 | %10
w: ||||||||||
 z8 | z8 | z4 G2 G2 | G4 G2 E2 | A4 G2 F2 | E4 E4 | E2 F2 A4 | G4 G4 | z8 | z8 | z8 | z8 | z8 | %23
w: |||||||||||||
 z8 | z4 E2 F2 | G4 A2 G2 | A4 (G2 A2) | G4 G4 | [EG]8 | z4 E4 | G4 G2 G2 | (A2 G2) F2 E2 | %32
w: ||||||thou|crown- edst the|year * with thy|
 [DG]4 [DG]4 | G3 A G3 ^F | G2 z2 z2 G2 | G2 G2 G2 G2 | G2 G2 G2 G2 | G3 G G2 A2 | G2 z2 G4 | %39
w: Good ness|and the Clouds shall|drop shall|drop up- on the|dwell- ings of the|Wil- der- ness- shall|drop shall|
 G2 G2 G2 G2 | G2 G2 G2 G2 | G3 G G4 | z4 G2 G2 | GGGG G2 G2 | G2 G2 G3 G | G2 G2 G2 G2 | %46
w: drop up- on the|dwell- ings of- the|Wil- der ness|they shall|drop up- on the dwell- ings|of the Wil- der|ness shall drop shall|
 GGGG G2 G2 | G2 G2 GGGG | G2 G2 G2 G2 | G3 G G4 |[M:2/4] E>F GE | AF GE | CD EF | G4- | G4- | %55
w: drop up- on- the- dwell- ings-|the dwell- ings- up- on- the-|dwell- ings of the|Wil- der ness|and the lit- tle|and the lit- tle|and the lit- tle|Hills||
 (G4 | E4- | E4) | EF GG | AA GE | G>G GG | G4 | z4 | z4 | z2 G>G | (G4 | G2 G>F | E>F EF | %68
w: |||and the lit- tle||||||shall re-|joi|||
 G2) G>G | (G2 Ac | BA G2 | G4) | z2 E>F | (G4 | GA/B/ c)B | A2 G2 | G4 | z4 | z4 | z4 | z4 | %81
w: ce shall re|joi * *||ce||||||||||
 z2 z3/2 z/ | z2 E>F | (GF) ED | C2 E2 | A2 G2 | G2 z2 | A2 ^F2 | G2 z2 | G2 A2 | G2 FG | A2 G2 | %92
w: |and the|Vall * ies shall|stand so|thinck with|corn|they shall|laugh|they shall|lau * *|gh and|
 G2 z2 | G2 G2 | (A2 GF | E2) G(G/F/) | EA GG | GA/G/ FF | E D3 | EF (G/A/G/E/ | C2) z2 | z4 | z4 | %103
w: sing|they shall|lau * *|gh they shall *|laugh * * shall|laugh * * * and|sing *|they shall lau * * *|gh|||
 z4 | z2 EF | (GG AA | G2) G>F | E2 D(E/F/) | G2 AA | AG (Ac/B/ | A2) G2 | G4 | z4 | %113
w: |they shall|lau * * *|gh they shall|laugh they shalll *|laugh they shall|laugh * * * *|* and|sing||
[M:4/4] (E3 F E3) F | G4 E4 | (G3 A G3) F | E4 A4 | G6 G2 | G4 G4 | z4 E4 |[M:6/4] A8 G4 | %121
w: Hal * * le|lu jah|Hal * * le-|lu- jah|Hal- le-|lu- jah|A|men A|
 G8 (c2 B2) | A4 (G2 A2) G4 | G12 |] %124
w: men A *|men A * *|men|
V:3
 c4 G4 | c6 d2 | (e3 f e3 f | g4) f2 e2 | d4 d2 d2 | (e3 d c3 e | d4) c2 B2 | c4 c4 | z8 | z8 | %10
w: thou O|God art|Pra * * *|is ed in|Si- on art|Pra * * *|is ed in|Si- on|||
 z8 | z8 | z4 c2 d2 | (e2 d2) e2 g2 | (c3 d) e2 f2 | g4 g4 | g2 f2 e4 | d4 c4 | z8 | z8 | z8 | z8 | %22
w: ||un- to|thee * shall the|Vow * be per-|form- ed|in Jer- u-|sa- lem|||||
 z8 | z8 | z4 g2 f2 | e4 d2 e2 | f4 (g2 f2) | e4 d4 | c8 | z8 | z8 | z8 | z8 | z4 c3 (d | %34
w: ||un- to|thee un- to-|thee- shall *|all flesh|come|||||and the|
 e3 d e2) g2 | c2 z4 G2 | (c3 B c2) d2 | G2 z4 c2 | (e3 d e2) g2 | c2 z4 e2 | (d2 B2 G4) | c4 c4 | %42
w: Clouds * * shall|drop the|Clouds * * shall|drop the|Clouds * * shall|drop shall|drop * *|fat- ness|
 z4 G2 G2 | c2 c2 c2 e2 | d2 d2 d2 d2 | c3 c c2 d2 | e3 e e2 g2 | c2 c2 c2 e2 | %48
w: they shall|drop up- on the|dwell- ings- of the|Wil- der- ness the|Will- der ness shall|drop up- on the|
 (dc)(BA) (GA)(B>G) | c3 c c4 |[M:2/4] z4 | z4 | z4 | c>d ec | fd ec | c>d ef | g4- | g4 | g>f ec | %59
w: dwell- * ings * of * the *|Wil- der- ness||||and the lit- tle|and- the- lit- tle|and- the- lit- tle|Hills||and the lit- tle|
 df ec | e>f ge | c4 | z2 G>G | c4 | z2 c>d | e4 | z2 e>f | (g>a g)f | (e>f e)c | (d>e de | %70
w: and the lit- tle|and the lit- tle|Hills|shall re|joice|shall re-|joice|shall re-|joice * * re-|joice * * on|ev * * *|
 fe d)c | d4 | z2 G>G | (c>d c>d | e>f e)g | (fe) d2 | c4 | z4 | z4 | z4 | z4 | z2 e>f | (gf) ed | %83
w: * * * ry|side|shall re-|joi * * *|* * ce on|ev * ry|side|||||and the|Vall * ies shall|
 c4 | G2 (c>e | dc B)c | d2 (cB) | c2 (BA) | (G2 cB | c3) z | e2 (de) | (f2 ed | e3) z | %93
w: stand|so thi *|* * ck with|corn that *|they shall *|laugh * *||they shall *|laugh * *||
 (ec) (dB) | (cd ef | gg/f/ ee/d/ | c/>d/c/B/ c)e | (d/e/d/c/ B)A | G4 | z4 | z2 (d/e/d/B/ | %101
w: they shall lau *|||* * * gh * shall|laugh * * * * and|sing||laugh * * *|
 G2) z2 | z4 | z4 | z2 GG | (cc c/d/c/d/ | ee e/f/e/f/ | gg g/a/g/f/ | e/f/e/d/ c/d/c/B/ | %109
w: |||they shall|lau- * * * * *||||
 c)e (dc | fe) d2 | c4 | z4 |[M:4/4] (c3 B c3) d | e4 c4 | (e3 d e3) f | g4 f4 | (e3 d c3) e | %118
w: gh shall laugh *|* * and|sing|||||||
 d4 d4 | z4 G4 |[M:6/4] (c3 d c4) d4 | (e3 f e4) g4 | f4 e4 d4 | c12 |] %124
w: ||||||
V:4
 C,4 C,4 | C,6 F,2 | (E,3 D, C,3 D, | (E,4) D,2 C,2 | [G,,G,]4) [G,,G,]2 [G,,G,]2 | %5
w: |||||
 (C,3 D, E,2 F,2 | G,4) G,,2 G,,2 | C,4 C,4 | z8 | z8 | z8 | z8 | z4 C,2 [G,,G,]2 | %13
w: ||||||||
 [C,C]2 [G,,G,]2 E,2 C,2 | F,4 E,2 D,2 | C,4 C,4 | C,2 D,2 E,4 | G,4 C,4 | [C,C]4 [C,G,]4 | %19
w: |||||thou that|
 ([F,A,]2 [E,G,]2) [D,F,]2 [C,E,]2 | [D,F,]6 [F,A,]2 | ([E,G,]2 [D,F,]2) [C,E,]2 [B,,D,]2 | %22
w: hear * est the|pray'r that|hear * est the|
 [C,E,]6 [D,F,]2 | ([C,E,]2 [B,,D,]2) [A,,C,]2 [G,,B,,]2 | C,4 C,2 D,2 | E,4 F,2 E,2 | %26
w: pray'r that|hear * est the|pray'r * *||
 D,4 (C,2 D,2) | G,4 [G,,G,]4 | C,8 | z4 [C,C]4 | [C,G,]4 [C,G,]2 [C,G,]2 | %31
w: |||||
 ([D,F,]2 [C,E,]2) [C,E,]2 [A,,C,]2 | [G,,G,]4 [G,,G,]4 | G,3 F, (E,3 D, | C,2) G,2 C,2 z2 | %35
w: ||and the Clouds *|* shall drop|
 z2 C,2 E,2 G,2 | C,2 z4 (G,2 | D,2 C,2) E,2 (F,D,) | C,4 C,4 | z4 z2 [C,C]2 | [G,,G,]8 | C,4 C,4 | %42
w: the Clouds shall|drop the|Clouds * shall drop *|fat- ness|shall|drop|fat- ness|
 z4 C,2 C,2 | C,2 C,2 C,2 C,2 | [G,,G,]2 [G,,G,]2 [G,,G,]2 [G,,G,]2 | C,3 C, C,2 [G,,G,]2 | %46
w: ||||
 [C,C]3 [C,C] [C,CC]2 G,2 | E,2 C,2 C,2 C,2 | [G,,G,]2 [G,,G,]2 [G,,G,]2 [G,,G,]2 | C,3 C, C,4 | %50
w: ||||
[M:2/4] C,>D, E,C, | F,D, E,C, | C,>F, E,D, | C,4- | C,4- | C,4- | C,4- | C,4 | C,>C, C,E, | %59
w: |||||||||
 D,D, C,E, | G,>F, C,G,, | C,4 | z4 | z4 | z2 C,>C, | C,4- | C,4- | C,4- | C,2 C,>C, | G,2 F,E, | %70
w: |||||xhall re-|joi|||ce shall re-|joi * *|
 D,C, [G,,G,]2 | [G,,G,]4 | z2 C,>C, | C,4- | C,3 G, | F,2 G,2 | C4 | z4 | [C,G,]2 [C,C]2 | %79
w: |ce|||||||the folds|
 G,A, G,F, | E,2 E,>F, | (G,F,) E,D, | C,4- | C,2 C,2 | E,2 C,2 | F,2 (E,C,) | G,2 (A,^G,) | %87
w: shall be full of|sheep and the|Vall * ies shall|stand|* so|thick with|corn that *|they xhall *|
 A,2 D,2 | G,2 z2 | C,2 F,2 | E,2 z2 | z2 G,2 | C,2 z2 | C,2 G,2 | (F,2 E,D, | C,2) CG, | %96
w: laugh shall|laugh|they shall|laugh|shall|laugh|they shall|laugh * *|* they shall|
 (A,F, E,)C, | G,2 D,2 | G,,4 | z4 | z4 | z2 E,F, | (G,/A,/G,/E,/ C,2) | z4 | z2 C,C, | C,2 F,F, | %106
w: laugh * * shal|laugh and|sing|||they shall|lau * * * gh||they shall|laugh they shall|
 (E,C,) G,E, | C,2 G,G, | (C/D/C/B,/ A,/B,/A,/G,/ | F,)E, (F,E, | F,2) G,2 | C,4 | z4 | %113
w: laugh * they shall|laugh they shall|lau * * * * * * *|gh * * *||||
[M:4/4] C,6 C,2 | C,4 C,4 | (C,3 D, C,3) D, | E,4 D,4 | C,6 C,2 | [G,,G,]4 [G,,G,]4 | z4 C,4 | %120
w: |||||||
[M:6/4] C,8 [G,,G,]4 | [C,C]8 E,4 | (F,2 D,2) (E,2 F,2) G,4 | C,12 |] %124
w: ||||

